X: 37143
T: Siobhan Beaton's Favourite
R: jig
M: 6/8
K: Amajor
E|AcB AFE|AFF FAB|{B}cef ecA|cBB B2 E|
AcB AFE|AFF FAB|{B}cef ecB|cAA A2:|
a|Tfec BAB|cAF !>!F2 a|Tfec BAB|c3 c2a|
Tfec BAE|FAB c2E|FAB {B}c2 B|A3A3:|

